src/assets/images/card_google_pay.svg

<svg width="22" height="9" viewBox="0 0 22 9" fill="none" xmlns="http://www.w3.org/2000/svg">
<path d="M10.2686 4.19876V6.74383H9.46094V0.458984H11.6022C12.1448 0.458984 12.6076 0.639874 12.9862 1.00165C13.3732 1.36343 13.5667 1.80514 13.5667 2.32677C13.5667 2.86102 13.3732 3.30273 12.9862 3.6603C12.6118 4.01787 12.149 4.19455 11.6022 4.19455H10.2686V4.19876ZM10.2686 1.23302V3.42472H11.619C11.9387 3.42472 12.2079 3.31535 12.4183 3.10081C12.6328 2.88626 12.7422 2.62545 12.7422 2.33098C12.7422 2.04071 12.6328 1.7841 12.4183 1.56956C12.2079 1.3466 11.9429 1.23723 11.619 1.23723H10.2686V1.23302Z" fill="#3C4043"/>
<path d="M15.677 2.30078C16.2743 2.30078 16.7455 2.46064 17.0904 2.78035C17.4354 3.10006 17.6079 3.53756 17.6079 4.09285V6.74308H16.838V6.14573H16.8044C16.4721 6.63791 16.0261 6.8819 15.4709 6.8819C14.9955 6.8819 14.6001 6.74308 14.2803 6.46123C13.9606 6.17938 13.8008 5.83022 13.8008 5.40955C13.8008 4.96364 13.9691 4.61027 14.3056 4.34945C14.6421 4.08443 15.0922 3.95402 15.6517 3.95402C16.1313 3.95402 16.5267 4.04236 16.8338 4.21905V4.03395C16.8338 3.7521 16.7245 3.51652 16.5015 3.31881C16.2785 3.12109 16.0177 3.02434 15.719 3.02434C15.2689 3.02434 14.9114 3.21364 14.6505 3.59645L13.9396 3.15054C14.3308 2.58263 14.9114 2.30078 15.677 2.30078ZM14.6337 5.42217C14.6337 5.6325 14.7221 5.80919 14.9029 5.94801C15.0796 6.08683 15.29 6.15835 15.5297 6.15835C15.8705 6.15835 16.1734 6.03214 16.4384 5.77974C16.7034 5.52734 16.838 5.23287 16.838 4.89212C16.5856 4.69441 16.2365 4.59345 15.7864 4.59345C15.4582 4.59345 15.1848 4.67337 14.966 4.82902C14.7431 4.99308 14.6337 5.1908 14.6337 5.42217Z" fill="#3C4043"/>
<path d="M22.0024 2.44141L19.3101 8.6337H18.4772L19.4784 6.46724L17.7031 2.44141H18.5823L19.8612 5.52914H19.878L21.1232 2.44141H22.0024Z" fill="#3C4043"/>
<path d="M7.05444 3.68537C7.05444 3.42202 7.03088 3.17004 6.98713 2.92773H3.60156V4.31595L5.55138 4.31637C5.47229 4.77827 5.21779 5.17202 4.82782 5.43452V6.33518H5.98846C6.66616 5.70796 7.05444 4.7808 7.05444 3.68537Z" fill="#4285F4"/>
<path d="M4.82932 5.43705C4.50624 5.65496 4.0902 5.78242 3.60348 5.78242C2.66328 5.78242 1.86568 5.14889 1.58005 4.29492H0.382812V5.22377C0.97596 6.40081 2.19507 7.2085 3.60348 7.2085C4.57691 7.2085 5.3947 6.88837 5.98995 6.33729L4.82932 5.43705Z" fill="#34A853"/>
<path d="M1.46772 3.6027C1.46772 3.36292 1.50769 3.13113 1.58046 2.91322V1.98438H0.383232C0.13798 2.47109 0 3.02049 0 3.6027C0 4.18491 0.138401 4.73431 0.383232 5.22103L1.58046 4.29218C1.50769 4.07428 1.46772 3.84248 1.46772 3.6027Z" fill="#FABB05"/>
<path d="M3.60348 1.42608C4.13479 1.42608 4.61057 1.60907 4.98623 1.96664L6.01477 0.938941C5.39007 0.357151 4.57565 0 3.60348 0C2.19549 0 0.97596 0.80769 0.382812 1.98473L1.58005 2.91358C1.86568 2.05961 2.66328 1.42608 3.60348 1.42608Z" fill="#E94235"/>
</svg>

<svg xmlns="http://www.w3.org/2000/svg" width="22" height="9" fill="none"><path fill="#3C4043" d="M10.269 4.199v2.545H9.46V.459h2.141q.816 0 1.384.543.58.542.58 1.325 0 .8-.58 1.333-.562.536-1.384.535H10.27zm0-2.966v2.192h1.35q.482-.002.8-.324a1.06 1.06 0 0 0 .323-.77c0-.29-.11-.547-.324-.761a1.05 1.05 0 0 0-.799-.333h-1.35zM15.677 2.3q.896 0 1.413.48.518.48.518 1.313v2.65h-.77v-.597h-.034q-.5.737-1.333.736-.712 0-1.19-.42a1.34 1.34 0 0 1-.48-1.052q0-.67.505-1.06.505-.397 1.346-.396.72 0 1.182.265v-.185a.92.92 0 0 0-.332-.715 1.14 1.14 0 0 0-.783-.295q-.676 0-1.069.572l-.71-.445q.587-.851 1.737-.85m-1.043 3.122q-.001.316.269.526.266.21.627.21.51 0 .908-.378.399-.378.4-.888-.377-.298-1.052-.299-.492.001-.82.236-.333.246-.332.593M22.002 2.441 19.31 8.634h-.833l1.001-2.167-1.775-4.026h.88L19.86 5.53h.017l1.245-3.088z"/><path fill="#4285F4" d="M7.054 3.685q0-.394-.067-.757H3.602v1.388h1.95a1.67 1.67 0 0 1-.724 1.119v.9h1.16c.678-.627 1.066-1.554 1.066-2.65"/><path fill="#34A853" d="M4.83 5.437c-.324.218-.74.345-1.227.345-.94 0-1.737-.633-2.023-1.487H.383v.929a3.6 3.6 0 0 0 3.22 1.984c.974 0 1.792-.32 2.387-.87z"/><path fill="#FABB05" d="M1.468 3.603c0-.24.04-.472.112-.69v-.929H.383A3.6 3.6 0 0 0 0 3.603c0 .582.138 1.131.383 1.618l1.197-.929a2.2 2.2 0 0 1-.112-.69"/><path fill="#E94235" d="M3.603 1.426c.532 0 1.008.183 1.383.54L6.015.94A3.46 3.46 0 0 0 3.603 0a3.6 3.6 0 0 0-3.22 1.985l1.197.929c.286-.854 1.083-1.488 2.023-1.488"/></svg>
